icons-dark/places/64/folder-text.svg

<?xml version="1.0" encoding="UTF-8" standalone="no"?>

<!-- Created with Inkscape (http://www.inkscape.org/) -->
<svg width="64" version="1.1" xmlns="http://www.w3.org/2000/svg" height="64" xmlns:xlink="http://www.w3.org/1999/xlink" xmlns:inkscape="http://www.inkscape.org/namespaces/inkscape">
 <defs id="defs5455">
  <linearGradient inkscape:collect="always" id="linearGradient4178" xlink:href="#linearGradient4172-5" y1="541.79797" y2="499.78421" gradientUnits="userSpaceOnUse" x2="0" gradientTransform="matrix(1 0 0 0.99967455 0 0.17645)"/>
  <linearGradient inkscape:collect="always" id="linearGradient4172-5">
   <stop style="stop-color:#3daee9" id="stop4174-6"/>
   <stop offset="1" style="stop-color:#6cc1ef" id="stop4176-6"/>
  </linearGradient>
 </defs>
 <metadata id="metadata5458"/>
 <g inkscape:label="Capa 1" inkscape:groupmode="layer" id="layer1" transform="matrix(1 0 0 1 -384.57143 -483.798)">
  <g inkscape:label="Capa 1" id="layer1-1" transform="matrix(1 0 0 1 0 0.000005)">
   <path inkscape:connector-curvature="0" style="fill:#147eb8" id="rect4180" d="m 388.57143,489.79812 0,5 0,22 c 0,0.55373 0.446,1 1,1 l 54,0 c 0.55399,0 1,-0.44627 1,-1 l 0,-21.99023 c 0,-0.003 -0.002,-0.006 -0.002,-0.01 l 0.002,0 0,-1 -28,0 -4,-4 -24,0 z"/>
   <path inkscape:connector-curvature="0" style="fill:url(#linearGradient4178)" id="rect4113" d="m 410.57143,499.79812 -4,4 -19,0 0,1 0.002,0 c -5e-5,0.004 -0.002,0.008 -0.002,0.0117 l 0,35.98828 0,1 1,0 56,0 1,0 0,-1 0,-35.98828 0,-0.0117 0,-5 z"/>
   <path inkscape:connector-curvature="0" style="fill:#ffffff;fill-opacity:0.235294;fill-rule:evenodd" id="path4224-8" d="m 387.57144,503.79812 0,1 19.99999,0 3,-5 -4,4 z"/>
   <path inkscape:connector-curvature="0" style="fill-opacity:0.235294;fill-rule:evenodd" id="path4228-3" d="m 388.57143,502.79812 0,1 18,0 4,-4 -6,3 z"/>
   <path inkscape:connector-curvature="0" style="fill-opacity:0.235294" id="path4151-2" d="m 387.57143,540.7981 0,1 1,0 56,0 1,0 0,-1 -1,0 -56,0 -1,0 z"/>
   <path inkscape:connector-curvature="0" style="fill:#ffffff;fill-opacity:0.235294;fill-rule:evenodd" id="path4196" d="m 28,6 3,5 2,0 27,0 0,-1 -27,0 -1,0 z" transform="matrix(1 0 0 1 384.57143 483.798)"/>
  </g>
  <path style="fill:#1272a5" id="rect4274" d="M 22 28 L 22 29 L 42 29 L 42 28 L 22 28 z M 22 30 L 22 31 L 35 31 L 35 30 L 22 30 z M 22 32 L 22 33 L 38 33 L 38 32 L 22 32 z M 22 34 L 22 35 L 42 35 L 42 34 L 22 34 z M 22 36 L 22 37 L 32 37 L 32 36 L 22 36 z M 22 38 L 22 39 L 42 39 L 42 38 L 22 38 z M 22 40 L 22 41 L 39 41 L 39 40 L 22 40 z M 22 42 L 22 43 L 32 43 L 32 42 L 22 42 z M 22 44 L 22 45 L 42 45 L 42 44 L 22 44 z M 22 46 L 22 47 L 36 47 L 36 46 L 22 46 z " transform="matrix(1 0 0 1 384.57143 483.798)"/>
 </g>
</svg>

<svg width="64" height="64" version="1.1" xmlns="http://www.w3.org/2000/svg">
 <defs>
  <linearGradient id="a" x2="0" y1="58" y2="16" gradientUnits="userSpaceOnUse">
   <stop stop-color="#3daee9" offset="0"/>
   <stop stop-color="#6cc1ef" offset="1"/>
  </linearGradient>
 </defs>
 <path d="m60 33v-23h-28l-4-4-24 1.1e-4v27z" fill="#147eb8"/>
 <path d="m22 20h-19v38h58v-42h-35z" fill="url(#a)"/>
 <g fill-opacity=".24">
  <g fill="#fff">
   <path d="m31 11h29v-1h-28l-4-4z"/>
   <path d="m3 20v1h20s3-5 3-5l-4 4h-19"/>
  </g>
  <g>
   <path d="m3 57v1h58v-1h-58"/>
   <path d="m4 19v1h18l4-4-6 3h-16"/>
  </g>
 </g>
 <path d="m22 28v1h20v-1zm0 2v1h13v-1zm0 2v1h16v-1zm0 2v1h20v-1zm0 2v1h10v-1zm0 2v1h20v-1zm0 2v1h17v-1zm0 2v1h10v-1zm0 2v1h20v-1zm0 2v1h14v-1z" fill="#1272a5"/>
</svg>
